src/static/logos/ieee.svg

<?xml version="1.0" encoding="UTF-8" standalone="no"?>
<svg width="512px" height="150px" viewBox="0 0 512 150" version="1.1" xmlns="http://www.w3.org/2000/svg" xmlns:xlink="http://www.w3.org/1999/xlink" preserveAspectRatio="xMidYMid">
    <g>
        <path d="M170.745706,19.7479422 L202.07141,19.7479422 L202.07141,132.832287 L170.745706,132.832287 L170.745706,19.7479422 Z M218.508448,132.832287 L218.508448,19.7479422 L304.649871,19.7479422 L304.649871,41.6725232 L249.83202,41.6725232 L249.83202,65.0068463 L300.260689,65.0068463 L300.260689,86.9356929 L249.83202,86.9356929 L249.83202,110.897042 L304.649871,110.897042 L304.649871,132.832287 L218.508448,132.832287 Z M322.2002,132.832287 L322.2002,19.7479422 L408.320295,19.7479422 L408.320295,41.6725232 L353.517374,41.6725232 L353.517374,65.0068463 L403.928981,65.0068463 L403.928981,86.9356929 L353.517374,86.9356929 L353.517374,110.897042 L408.320295,110.897042 L408.320295,132.832287 L322.2002,132.832287 Z M425.85996,132.832287 L425.85996,19.7479422 L512.001383,19.7479422 L512.001383,41.6725232 L457.202727,41.6725232 L457.202727,65.0068463 L507.6186,65.0068463 L507.6186,86.9356929 L457.202727,86.9356929 L457.202727,110.897042 L512.001383,110.897042 L512.001383,132.832287 L425.85996,132.832287 Z M71.4580647,87.6373648 C71.0443129,95.6223484 70.9419413,103.012297 70.351172,111.016475 C73.5118947,111.304396 77.0778382,111.579519 80.4475695,111.088989 L79.4409156,88.7741159 L79.2638981,87.7120107 C76.6982102,87.8122496 74.2690178,87.9146212 71.4580647,87.6373648 Z M51.7195436,65.2137222 C47.8272906,67.1651806 42.1008801,70.1147619 42.7321715,75.4530135 C43.5660734,78.3684709 46.7225306,80.2516815 49.2199707,81.4502821 C63.0252054,87.5328605 81.3518519,87.7397364 95.9270062,83.19913 C99.5249409,81.8128482 104.3556,79.8016731 105.01675,75.3932967 C104.978361,71.7505745 101.122364,69.4578775 98.3519331,68.0630647 L98.3519331,67.8903126 C99.318065,67.5085519 100.429223,67.1651806 101.429479,67.0606763 L101.429479,66.9625702 C96.547634,66.0881462 91.8342756,64.8106341 87.105988,63.5608477 C88.0166686,65.636005 88.6735529,67.8241977 89.4328088,69.9803992 C90.8532146,69.5261253 92.3098769,69.1806212 93.8433179,68.9716125 C96.3364926,69.9420098 99.9067016,71.3304244 100.260737,74.4484923 C100.537993,77.3639497 97.347412,78.7843555 95.3319714,79.9680269 C84.640539,83.8581471 72.6118778,84.2377751 61.461906,81.2796628 C58.3822275,80.3092655 53.9375946,79.0637446 53.5558339,75.1416332 C55.7418937,69.9803992 61.3957911,68.9054975 66.1176804,67.6514456 C63.6906207,66.0881462 61.223039,64.7039971 58.8706253,62.9636801 C56.3305303,63.1044411 54.0101078,64.2155993 51.7195436,65.2137222 L51.7195436,65.2137222 Z M75.339654,34.0650348 L73.9555049,38.5075351 L67.0155645,58.3868172 C68.7537487,58.5638347 70.9056847,58.3868172 72.6118778,58.5638347 L72.6118778,58.7280558 L71.5966929,81.2135478 L71.7715777,81.4502821 C73.9917615,81.6678218 76.7643252,81.7787243 79.0271638,81.3926981 L79.0271638,81.0386631 L78.1207487,59.22925 L78.2572442,58.4913215 L84.3632826,58.3868172 C81.317728,50.3399841 78.3638812,42.2121068 75.5188043,34.0650348 L75.339654,34.0650348 L75.339654,34.0650348 Z M72.1149491,24.0774071 C77.2207319,20.598906 81.8018603,25.4615562 85.7580955,28.2405182 C101.054116,40.552834 115.48851,54.6459889 126.487057,70.5605048 C127.873339,72.6143347 128.500365,75.802783 127.256977,78.1274711 C124.405501,82.8834843 120.558036,87.223613 116.911048,91.6319893 L116.911048,91.8729891 C107.817039,101.553502 98.213305,111.504873 87.8353856,119.703131 C82.7701249,122.784942 78.1207487,129.515874 71.5966929,125.346365 C56.7421494,114.490711 42.5274283,100.994724 30.4774397,86.5198083 C28.4342735,83.3377582 25.2436924,80.7294156 23.8232867,77.1208172 C21.8398373,72.232574 26.211957,68.7263472 28.7136626,65.0452357 C41.0003855,49.8921084 56.2601499,35.0332994 72.1149491,24.0774071 L72.1149491,24.0774071 Z M84.9177954,9.60462431 L79.2638981,1.59191506 C78.5707571,1.16963228 77.7069969,0.470093113 76.9413427,0.265349944 C75.273539,-0.457649374 73.4756381,0.416774579 72.1149491,1.44902139 L61.8841888,14.7743893 C45.4706114,35.1015471 26.0413377,54.0829451 4.84402144,68.6325066 C3.16768674,69.9420098 0.676644845,71.2195219 0.158388697,73.3778561 C-0.398256795,75.3186508 0.612662605,76.9203395 1.81766147,78.1274711 C18.7921499,89.8191592 35.0201788,103.69904 49.4652359,119.528246 C52.028791,122.221899 54.1082139,124.900622 56.6163177,127.430053 C60.8412783,133.051959 65.8041674,138.718653 69.6878894,144.750045 C70.9056847,146.023292 71.1146934,148.115511 73.0192314,148.736139 C74.5100176,149.252262 76.3505734,149.602032 77.7731119,148.736139 L79.1871194,147.315733 C96.7502444,122.435173 119.024595,100.090442 143.911554,82.0495825 C146.402596,79.8251332 151.160742,78.9976296 151.228989,74.8686423 C151.051972,72.9641043 149.942946,71.0872919 148.307134,70.0465141 L147.89978,69.9803992 C135.092668,61.2681508 123.159981,51.4148857 111.918301,40.2371883 L99.4950825,27.2594572 C94.4618129,21.6802058 89.571437,15.4995214 84.9177954,9.60462431 L84.9177954,9.60462431 Z M70.2807915,21.019056 C75.273539,17.1332013 81.556595,20.3600389 85.7580955,23.9345134 C90.1579409,27.2978465 94.741202,31.1090553 98.7635522,35.003441 L99.4950825,35.4235911 C110.634391,45.7588557 120.980319,57.2458006 129.479293,69.3896298 C130.857044,71.5031765 132.074839,73.898245 131.30492,76.7027999 C128.470506,83.7877667 122.712105,89.4352657 117.676703,95.6223484 C106.78266,107.34816 95.2914493,118.694344 82.4267535,127.745699 C79.8248091,129.586254 76.3143168,131.286049 73.1962489,129.825121 C63.7268773,124.868631 55.7418937,116.749284 47.4540609,109.350804 C37.8417956,100.438078 28.1954065,90.060159 20.909962,79.2045055 C19.8265294,77.6817282 19.5215474,75.802783 19.5535385,73.7937407 C20.489812,70.0465141 23.0576326,66.9625702 25.486825,63.8039802 C34.094569,52.8331587 44.6388423,42.4275137 55.2876198,32.9218855 C55.5328851,32.678753 55.987159,32.1604968 56.3731852,31.9130988 C60.9457826,27.9589964 65.4885217,24.4591678 70.2807915,21.019056 L70.2807915,21.019056 Z" fill="#1A1918"></path>
    </g>
</svg>

<svg width="512" height="150" xmlns="http://www.w3.org/2000/svg" preserveAspectRatio="xMidYMid"><path d="M170.746 19.748h31.325v113.084h-31.325V19.748zm47.762 113.084V19.748h86.142v21.925h-54.818v23.334h50.429v21.929h-50.429v23.961h54.818v21.935h-86.142zm103.692 0V19.748h86.12v21.925h-54.803v23.334h50.412v21.929h-50.412v23.961h54.803v21.935H322.2zm103.66 0V19.748h86.141v21.925h-54.798v23.334h50.416v21.929h-50.416v23.961H512v21.935h-86.14zM71.458 87.637c-.414 7.985-.516 15.375-1.107 23.38 3.16.287 6.727.563 10.097.072L79.44 88.774l-.177-1.062c-2.566.1-4.995.203-7.806-.075zM51.72 65.214c-3.893 1.951-9.62 4.9-8.988 10.239.834 2.915 3.99 4.799 6.488 5.997 13.805 6.083 32.132 6.29 46.707 1.75 3.598-1.387 8.429-3.398 9.09-7.807-.039-3.642-3.895-5.935-6.665-7.33v-.173c.966-.381 2.077-.725 3.077-.83v-.097c-4.881-.875-9.595-2.152-14.323-3.402.91 2.075 1.568 4.263 2.327 6.42 1.42-.455 2.877-.8 4.41-1.01 2.493.971 6.064 2.36 6.418 5.477.277 2.916-2.914 4.336-4.929 5.52-10.691 3.89-22.72 4.27-33.87 1.312-3.08-.97-7.524-2.216-7.906-6.138 2.186-5.162 7.84-6.237 12.562-7.49-2.427-1.564-4.895-2.948-7.247-4.688-2.54.14-4.86 1.252-7.151 2.25zm23.62-31.149l-1.384 4.443-6.94 19.879c1.738.177 3.89 0 5.596.177v.164l-1.015 22.486.175.236c2.22.218 4.992.329 7.255-.057v-.354l-.906-21.81.136-.738 6.106-.104c-3.045-8.047-6-16.175-8.844-24.322h-.18zm-3.225-9.988c5.106-3.478 9.687 1.385 13.643 4.164 15.296 12.312 29.73 26.405 40.73 42.32 1.385 2.053 2.012 5.242.769 7.566-2.851 4.756-6.699 9.097-10.346 13.505v.241c-9.094 9.68-18.698 19.632-29.076 27.83-5.065 3.082-9.714 9.813-16.238 5.643-14.855-10.855-29.07-24.351-41.12-38.826-2.043-3.182-5.233-5.79-6.654-9.4-1.983-4.887 2.389-8.394 4.89-12.075C41 49.892 56.26 35.033 72.116 24.077zM84.918 9.605l-5.654-8.013C78.57 1.17 77.707.47 76.94.265c-1.667-.723-3.465.152-4.826 1.184l-10.23 13.325C45.47 35.102 26.04 54.083 4.843 68.633 3.168 69.942.677 71.22.158 73.378c-.556 1.94.455 3.542 1.66 4.75 16.974 11.691 33.202 25.571 47.647 41.4 2.564 2.694 4.643 5.373 7.151 7.902 4.225 5.622 9.188 11.289 13.072 17.32 1.218 1.273 1.427 3.366 3.331 3.986 1.491.516 3.332.866 4.754 0l1.414-1.42c17.563-24.88 39.838-47.226 64.725-65.266 2.49-2.225 7.249-3.052 7.317-7.181-.177-1.905-1.286-3.782-2.922-4.822l-.407-.067c-12.807-8.712-24.74-18.565-35.982-29.743L99.495 27.26c-5.033-5.58-9.924-11.76-14.577-17.655zM70.28 21.019c4.993-3.886 11.276-.659 15.477 2.916 4.4 3.363 8.983 7.174 13.006 11.068l.731.42c11.14 10.336 21.485 21.823 29.984 33.967 1.378 2.113 2.596 4.508 1.826 7.313-2.834 7.085-8.593 12.732-13.628 18.92-10.894 11.725-22.386 23.071-35.25 32.123-2.602 1.84-6.113 3.54-9.23 2.08-9.47-4.957-17.455-13.077-25.743-20.475-9.612-8.913-19.259-19.29-26.544-30.146-1.083-1.523-1.388-3.402-1.356-5.411.936-3.747 3.504-6.831 5.933-9.99 8.608-10.97 19.152-21.376 29.8-30.882.246-.243.7-.762 1.086-1.009 4.573-3.954 9.116-7.454 13.908-10.894z" fill="#1A1918"/></svg>
